symbols/web/local_laundry_service/materialsymbolsoutlined/local_laundry_service_grad200fill1_20px.svg

<svg xmlns="http://www.w3.org/2000/svg" height="20" width="20"><path d="M5 19q-.938 0-1.615-.677t-.677-1.615V3.292q0-.938.677-1.615T5 1h10q.938 0 1.615.677t.677 1.615v13.416q0 .938-.677 1.615T15 19Zm5.021-2.708q1.896 0 3.25-1.354 1.354-1.355 1.354-3.271 0-1.917-1.354-3.271Q11.917 7.042 10 7.042q-1.917 0-3.271 1.354-1.354 1.354-1.354 3.271 0 1.895 1.365 3.26 1.364 1.365 3.281 1.365ZM10 13.875q-.458 0-.885-.187-.427-.188-.761-.48l3.188-3.187q.333.291.5.729.166.438.166.917 0 .937-.635 1.573-.635.635-1.573.635ZM6.708 6.104q.438 0 .782-.344.343-.343.343-.781 0-.437-.343-.781-.344-.344-.782-.344-.437 0-.781.344-.344.344-.344.781 0 .438.344.781.344.344.781.344Zm2.854 0q.438 0 .782-.344.344-.343.344-.781 0-.437-.344-.781-.344-.344-.782-.344-.437 0-.781.344-.343.344-.343.781 0 .438.343.781.344.344.781.344Z"/></svg>

<svg xmlns="http://www.w3.org/2000/svg" height="20" width="20"><path d="M5 19Q4.062 19 3.385 18.323Q2.708 17.646 2.708 16.708V3.292Q2.708 2.354 3.385 1.677Q4.062 1 5 1H15Q15.938 1 16.615 1.677Q17.292 2.354 17.292 3.292V16.708Q17.292 17.646 16.615 18.323Q15.938 19 15 19ZM10.021 16.292Q11.917 16.292 13.271 14.938Q14.625 13.583 14.625 11.667Q14.625 9.75 13.271 8.396Q11.917 7.042 10 7.042Q8.083 7.042 6.729 8.396Q5.375 9.75 5.375 11.667Q5.375 13.562 6.74 14.927Q8.104 16.292 10.021 16.292ZM10 13.875Q9.542 13.875 9.115 13.688Q8.688 13.5 8.354 13.208L11.542 10.021Q11.875 10.312 12.042 10.75Q12.208 11.188 12.208 11.667Q12.208 12.604 11.573 13.24Q10.938 13.875 10 13.875ZM6.708 6.104Q7.146 6.104 7.49 5.76Q7.833 5.417 7.833 4.979Q7.833 4.542 7.49 4.198Q7.146 3.854 6.708 3.854Q6.271 3.854 5.927 4.198Q5.583 4.542 5.583 4.979Q5.583 5.417 5.927 5.76Q6.271 6.104 6.708 6.104ZM9.562 6.104Q10 6.104 10.344 5.76Q10.688 5.417 10.688 4.979Q10.688 4.542 10.344 4.198Q10 3.854 9.562 3.854Q9.125 3.854 8.781 4.198Q8.438 4.542 8.438 4.979Q8.438 5.417 8.781 5.76Q9.125 6.104 9.562 6.104Z"/></svg>
